X:385
T: "Spaete Reue"
N: Z1065
O: Europa, Mitteleuropa, Deutschland, Mittelrhein
R: Romanze, Ballade, Tod
M: 4/4
L: 1/8
K: F
 | F2A2F2A2 | GFGAF2z2
A2c2A2c2 | BABcA2z2
G2G2AGFG | A2A2cBA2
G2G2AGFG | A2A2cBA2
c4dcBA | B4cB
AG | A2A2BABc | A4z4

